!!!!SEGMENT: pl-cz--iii-332--001-007_just-franciszek-kasper--dixit-dominus-dominus-a-dextris.krn
!!!cenid: 17xx:912
!!!COM: Just, Franciszek Kasper
!!!COM-rismID: pe30098311
!!!CDT: 1717-1760
!!!CNT: Czech
!!!OPR: Dixit Dominus
!!!OTL: Dominus a dextris
!!!OMV: 007
!!!PDT:
!!!AGN: Sacred
!!!YEC: Copyright 2022 Narodowy Instytut Fryderyka Chopina (https://polishscores.org)
!!!YEM: License CC-BY-4.0 (https://creativecommons.org/licenses/by/4.0)
!!!SMS-siglum: PL-CZ
!!!SMS-shelfmark: III-332
!!!SMS-shelfwork: 001-007 M
!!!SMS-variant:
!!!SMS-altvar:
!!!NIFC-rismSourceID: 300000542
!!!NIFC-rismChildID: 300000542
!!!NIFC-islandoraID: pl-cz:37699
!!!URL-pdf-islandora: https://repozytorium.nifc.pl/islandora/object/pl-cz%3A37699/datastream/PDF/view
!!!URL-scan: https://polish.musicsources.pl/pl/lokalizacje/galeria/rekopisy/6905/1 @EN{Scan on Polish Music Sources Website} @PL{Skany w portalu Dziedzictwo Muzyki Polskiej w otwartym dostępie}
!!!IIIF:
!!!ONB-nifc: UWAGA: części Dixit Dominus: Dixit Dominus, Virgam virtutis tuae, Dominare in medio, Tecum principium, Juravit Dominus, Tu es sacerdos, Dominus a dextris, Judicabit in nationibus, De torrente, Gloria patri
!!!AIN: 1 alto 6 empty 1 tenor 2 violn 1 vox
!!!key:
**kern	**fba	**kern	**kern	**kern	**text	**kern	**text	**kern	**kern	**kern	**kern	**kern	**kern
*part11	*	*part10	*part9	*part8	*	*part7	*	*part6	*part5	*part4	*part3	*part2	*part1
*staff11	*	*staff10	*staff9	*staff8	*	*staff7	*	*staff6	*staff5	*staff4	*staff3	*staff2	*staff1
*Iempty	*	*Ivioln	*Ivioln	*Iempty	*	*Iempty	*	*Itenor	*Ialto	*Ivox	*Iempty	*Iempty	*Iempty
*I"Fundamento.	*	*I"Violino Secundo.	*I"Violino Primo.	*I"Baſso Secundo.	*	*I"Baſso.	*	*I"Tenore	*I"Alto.	*I"Canto.	*I"Clarino 2do.	*I"Clarino Primo exD.	*I"Oboa Solo
*I'Fund.	*	*I'Vn II	*I'Vn I	*I'B. 2	*	*I'B.	*	*I'T.	*I'A.	*I'C.	*I'Tr-ba 2	*I'Tr-ba 1	*I'Ob.
*clefF4	*	*clefG2	*clefG2	*clefF4	*	*clefF4	*	*clefC4	*clefC3	*clefC1	*clefG2	*clefG2	*clefG2
*	*	*	*	*	*	*	*	*	*	*	*ITrd-1c-2	*ITrd-1c-2	*
*k[f#c#]	*	*k[f#c#]	*k[f#c#]	*k[f#c#]	*	*k[f#c#]	*	*k[f#c#]	*k[f#c#]	*k[f#c#]	*k[f#c#]	*k[f#c#]	*k[f#c#]
*D:	*	*D:	*D:	*D:	*	*D:	*	*D:	*D:	*D:	*	*	*D:
*M4/4	*	*M4/4	*M4/4	*M4/4	*	*M4/4	*	*M4/4	*M4/4	*M4/4	*M4/4	*M4/4	*M4/4
*met(c)	*	*met(c)	*met(c)	*met(c)	*	*met(c)	*	*met(c)	*met(c)	*met(c)	*met(c)	*met(c)	*met(c)
=1	=1	=1	=1	=1	=1	=1	=1	=1	=1	=1	=1	=1	=1
!LO:TX:a:rj:i:t=Solo Hoboa	!	!LO:TX:a:rj:i:t=Solo	!	!LO:TX:a:t=9.	!	!LO:TX:a:i:t=Baſso Primo	!	!	!	!	!	!	!
4D/	.	0r	0r	00r	.	00r	.	1ryy	1ryy	1ryy	1ryy	1ryy	4dd\
4C#/	6	.	.	.	.	.	.	.	.	.	.	.	4a/
4D/	.	.	.	.	.	.	.	.	.	.	.	.	8dd\L
.	.	.	.	.	.	.	.	.	.	.	.	.	16ff#\L
.	.	.	.	.	.	.	.	.	.	.	.	.	16gg\JJ
!	!	!	!	!	!	!	!	!	!	!	!	!	!LO:TX:t=P:problem=mixed beam
8r	.	.	.	.	.	.	.	.	.	.	.	.	8aa\L
8AA/	.	.	.	.	.	.	.	.	.	.	.	.	8a/J
=2	=2	=2	=2	=2	=2	=2	=2	=2	=2	=2	=2	=2	=2
!	!	!	!	!	!	!LO:TX:a:t=9.	!	!	!	!	!	!	!
8D\L	.	.	.	.	.	.	.	1ryy	1ryy	1ryy	1ryy	1ryy	16dd\LL
.	.	.	.	.	.	.	.	.	.	.	.	.	16cc#\J
8E\	.	.	.	.	.	.	.	.	.	.	.	.	8.dd\J
8F#\	.	.	.	.	.	.	.	.	.	.	.	.	.
.	.	.	.	.	.	.	.	.	.	.	.	.	16aa\LL
8D\J	.	.	.	.	.	.	.	.	.	.	.	.	16ff#\
.	.	.	.	.	.	.	.	.	.	.	.	.	16dd\JJ
8G\L	.	.	.	.	.	.	.	.	.	.	.	.	16bb\LL
.	.	.	.	.	.	.	.	.	.	.	.	.	16gg\
8F#\	.	.	.	.	.	.	.	.	.	.	.	.	16aa\
.	.	.	.	.	.	.	.	.	.	.	.	.	16ff#\JJ
8E\	.	.	.	.	.	.	.	.	.	.	.	.	16gg\LL
.	.	.	.	.	.	.	.	.	.	.	.	.	16ee\
8D\J	.	.	.	.	.	.	.	.	.	.	.	.	16ff#\
.	.	.	.	.	.	.	.	.	.	.	.	.	16dd\JJ
=3	=3	=3	=3	=3	=3	=3	=3	=3	=3	=3	=3	=3	=3
!	!	!	!	!	!	!	!	!	!	!	!	!	!LO:TX:t=P:problem=mixed beam
8AA/L	.	1r	1r	.	.	.	.	1ryy	1ryy	1ryy	1ryy	1ryy	8ee\L
8BB/	.	.	.	.	.	.	.	.	.	.	.	.	8a/J
8C#/	.	.	.	.	.	.	.	.	.	.	.	.	16r
.	.	.	.	.	.	.	.	.	.	.	.	.	16ee\LL
8AA/J	.	.	.	.	.	.	.	.	.	.	.	.	16dd\
.	.	.	.	.	.	.	.	.	.	.	.	.	16ee\JJ
4D\	.	.	.	.	.	.	.	.	.	.	.	.	16ff#\LL
.	.	.	.	.	.	.	.	.	.	.	.	.	16gg\
.	.	.	.	.	.	.	.	.	.	.	.	.	16ee\
.	.	.	.	.	.	.	.	.	.	.	.	.	16ff#\JJ
4E\	.	.	.	.	.	.	.	.	.	.	.	.	16gg\LL
.	.	.	.	.	.	.	.	.	.	.	.	.	16aa\
.	.	.	.	.	.	.	.	.	.	.	.	.	16ff#\
*	*	*	*	*	*	*	*	*	*	*	*	*	*custos:aa
.	.	.	.	.	.	.	.	.	.	.	.	.	16gg\JJ
!	!	!	!	!	!	!	!	!	!	!	!	!	!LO:LB:g=original
=4	=4	=4	=4	=4	=4	=4	=4	=4	=4	=4	=4	=4	=4
*	*	*	*	*	*	*	*	*	*	*	*	*	*2\right
!	!	!	!	!	!	!	!	!	!	!	!	!	!LO:TX:t=P::problem=cauda półnuty po prawej&colon; global
8D/L	.	4r	4r	.	.	.	.	1ryy	1ryy	1ryy	1ryy	1ryy	2aaT\
8C#/J	.	.	.	.	.	.	.	.	.	.	.	.	.
8r	.	8r	8r	.	.	.	.	.	.	.	.	.	.
8AA/	.	8cc#\	8ee\	.	.	.	.	.	.	.	.	.	.
4D/	.	16dd\LL	16ff#\LL	.	.	.	.	.	.	.	.	.	2aa\
.	.	16ee\JJ	16gg\JJ	.	.	.	.	.	.	.	.	.	.
.	.	4ff#\	4aa\	.	.	.	.	.	.	.	.	.	.
8r	.	.	.	.	.	.	.	.	.	.	.	.	.
8D/	.	8dd\	8ff#\	.	.	.	.	.	.	.	.	.	.
=5	=5	=5	=5	=5	=5	=5	=5	=5	=5	=5	=5	=5	=5
4AA/	.	16cc#\LL	16ee\LL	00r	.	00r	.	1ryy	1ryy	1ryy	1ryy	1ryy	1aa\T
.	.	16dd\JJ	16ff#\JJ	.	.	.	.	.	.	.	.	.	.
.	.	4ee\	4gg\	.	.	.	.	.	.	.	.	.	.
8r	.	.	.	.	.	.	.	.	.	.	.	.	.
8AA/	.	8cc#\	8ee\	.	.	.	.	.	.	.	.	.	.
4D/	.	16dd\LL	16ff#\LL	.	.	.	.	.	.	.	.	.	.
.	.	16ee\JJ	16gg\JJ	.	.	.	.	.	.	.	.	.	.
.	.	4ff#\	4aa\	.	.	.	.	.	.	.	.	.	.
8r	.	.	.	.	.	.	.	.	.	.	.	.	.
8D/	.	8dd\	8ff#\	.	.	.	.	.	.	.	.	.	.
=6	=6	=6	=6	=6	=6	=6	=6	=6	=6	=6	=6	=6	=6
8A\L	.	4cc#\	4ee\	.	.	.	.	1ryy	1ryy	1ryy	1ryy	1ryy	4aa\
8G\	.	.	.	.	.	.	.	.	.	.	.	.	.
8F#\	.	4r	4r	.	.	.	.	.	.	.	.	.	8r
8E\J	.	.	.	.	.	.	.	.	.	.	.	.	8ee\
4D/	.	2r	2r	.	.	.	.	.	.	.	.	.	16ff#\LL
.	.	.	.	.	.	.	.	.	.	.	.	.	16ee\
.	.	.	.	.	.	.	.	.	.	.	.	.	16dd\
.	.	.	.	.	.	.	.	.	.	.	.	.	16ff#\JJ
4C#/	.	.	.	.	.	.	.	.	.	.	.	.	16gg\LL
.	.	.	.	.	.	.	.	.	.	.	.	.	16ff#\
.	.	.	.	.	.	.	.	.	.	.	.	.	16ee\
.	.	.	.	.	.	.	.	.	.	.	.	.	16gg\JJ
=7	=7	=7	=7	=7	=7	=7	=7	=7	=7	=7	=7	=7	=7
!	!	!LO:TX:a:t=1	!LO:TX:a:t=1	!	!	!	!	!	!	!	!	!	!
8D\L	.	1r	1r	.	.	.	.	1ryy	1ryy	1ryy	1ryy	1ryy	8aa\L
8E\	.	.	.	.	.	.	.	.	.	.	.	.	16bb\L
.	.	.	.	.	.	.	.	.	.	.	.	.	16ccc#\JJ
8F#\	.	.	.	.	.	.	.	.	.	.	.	.	8ddd\L
8G\J	.	.	.	.	.	.	.	.	.	.	.	.	8gg\J
4A\	6 4	.	.	.	.	.	.	.	.	.	.	.	8ff#\L
.	.	.	.	.	.	.	.	.	.	.	.	.	16ee\L
.	.	.	.	.	.	.	.	.	.	.	.	.	16dd\JJ
4AA/	5 3	.	.	.	.	.	.	.	.	.	.	.	4eeT\
!LO:LB:g=original	!	!	!	!	!	!	!	!	!	!	!	!	!
=8	=8	=8	=8	=8	=8	=8	=8	=8	=8	=8	=8	=8	=8
4D/	.	16r	16r	.	.	.	.	1ryy	1ryy	1ryy	1ryy	1ryy	4dd\
.	.	16ff#\LL	16ff#\LL	.	.	.	.	.	.	.	.	.	.
.	.	16aa\	16aa\	.	.	.	.	.	.	.	.	.	.
.	.	16ff#\JJ	16ff#\JJ	.	.	.	.	.	.	.	.	.	.
4D/	.	16dd\LL	16dd\LL	.	.	.	.	.	.	.	.	.	2.ryy
.	.	16dd\	16dd\	.	.	.	.	.	.	.	.	.	.
.	.	16ff#\	16ff#\	.	.	.	.	.	.	.	.	.	.
.	.	16dd\JJ	16dd\JJ	.	.	.	.	.	.	.	.	.	.
4D/	.	16a\LL	16a\LL	.	.	.	.	.	.	.	.	.	.
.	.	16a\	16a\	.	.	.	.	.	.	.	.	.	.
.	.	16dd\	16dd\	.	.	.	.	.	.	.	.	.	.
.	.	16a\JJ	16a\JJ	.	.	.	.	.	.	.	.	.	.
4D/	.	16f#/LL	16f#/LL	.	.	.	.	.	.	.	.	.	.
.	.	16f#/	16f#/	.	.	.	.	.	.	.	.	.	.
.	.	16a/	16a/	.	.	.	.	.	.	.	.	.	.
.	.	16f#/JJ	16f#/JJ	.	.	.	.	.	.	.	.	.	.
=9	=9	=9	=9	=9	=9	=9	=9	=9	=9	=9	=9	=9	=9
!	!	!	!	!	!	!	!	!	!	!	!	!	!LO:TX:a:t=1
16D|\LL	.	16d/LL	16d/LL	1r	.	1r	.	1ryy	1ryy	1ryy	1ryy	1ryy	1r
16D|\	.	16d/	16d/	.	.	.	.	.	.	.	.	.	.
16E|\	.	16e/	16e/	.	.	.	.	.	.	.	.	.	.
16F#|\JJ	.	16f#/JJ	16f#/JJ	.	.	.	.	.	.	.	.	.	.
16G|\LL	.	16g/LL	16g/LL	.	.	.	.	.	.	.	.	.	.
16A|\	.	16a/	16a/	.	.	.	.	.	.	.	.	.	.
16B|\	.	16b/	16b/	.	.	.	.	.	.	.	.	.	.
*	*	*	*custos:cc#	*	*	*	*	*	*	*	*	*	*
16c#|\JJ	.	16cc#/JJ	16cc#/JJ	.	.	.	.	.	.	.	.	.	.
!	!	!LO:LB:g=original	!LO:LB:g=original	!	!	!	!	!	!	!	!	!	!
16d\LL	.	16dd\LL	16dd\LL	.	.	.	.	.	.	.	.	.	.
16F#|\	.	16f#\	16f#\	.	.	.	.	.	.	.	.	.	.
16E|\	.	16e\	16e\	.	.	.	.	.	.	.	.	.	.
16D|\JJ	.	16d\JJ	16d\JJ	.	.	.	.	.	.	.	.	.	.
!LO:TX:t=P:problem=mixed beam	!	!	!	!	!	!	!	!	!	!	!	!	!
8A\L	.	8a/L	8a/L	.	.	.	.	.	.	.	.	.	.
8AA/J	.	8A/J	8A/J	.	.	.	.	.	.	.	.	.	.
!	!	!	!	!	!	!	!	!	!	!	!	!	!LO:LB:g=original
=10	=10	=10	=10	=10	=10	=10	=10	=10	=10	=10	=10	=10	=10
4D/	.	4d/	4d/	2r	.	4d\	Do-	1ryy	1ryy	1ryy	1ryy	1ryy	4d/
4r	.	4r	4r	.	.	4A\	-mi-	.	.	.	.	.	4r
4D/	.	2r	2r	4d\	Do-	16F#\	-nus	.	.	.	.	.	2r
.	.	.	.	.	.	16D\LL	a	.	.	.	.	.	.
.	.	.	.	.	.	16E\	.	.	.	.	.	.	.
.	.	.	.	.	.	16F#\JJ	.	.	.	.	.	.	.
4A\	.	.	.	4A\	-mi-	16G\LL	dex-	.	.	.	.	.	.
.	.	.	.	.	.	16A\JJ	.	.	.	.	.	.	.
.	.	.	.	.	.	16B\LL	-tris	.	.	.	.	.	.
.	.	.	.	.	.	16c#\JJ	.	.	.	.	.	.	.
=11	=11	=11	=11	=11	=11	=11	=11	=11	=11	=11	=11	=11	=11
8F#\L	6	00r	00r	16F#\	-nus	8d\L	tu-	1ryy	1ryy	1ryy	1ryy	1ryy	00r
.	.	.	.	16D\LL	à	.	.	.	.	.	.	.	.
8D\J	.	.	.	16E\	.	8D\J	-is	.	.	.	.	.	.
.	.	.	.	16F#\JJ	.	.	.	.	.	.	.	.	.
8r	.	.	.	16G\LL	dex-	8r	.	.	.	.	.	.	.
.	.	.	.	16A\JJ	.	.	.	.	.	.	.	.	.
8A\	.	.	.	16B\LL	-tris	8A\	con-	.	.	.	.	.	.
.	.	.	.	16c#\JJ	.	.	.	.	.	.	.	.	.
8F#\L	.	.	.	8d\	tu-	8d\L	-fre-	.	.	.	.	.	.
8D\	.	.	.	8D/	-is	16c#\L	.	.	.	.	.	.	.
.	.	.	.	.	.	16B\JJ	.	.	.	.	.	.	.
8F#\	.	.	.	8r	.	16A\LL	.	.	.	.	.	.	.
.	.	.	.	.	.	16G\	.	.	.	.	.	.	.
8A\J	.	.	.	8A\	con-	16F#\	.	.	.	.	.	.	.
.	.	.	.	.	.	16E\JJ	.	.	.	.	.	.	.
!	!	!	!	!LO:LB:g=original	!	!	!	!	!	!	!	!	!
=12	=12	=12	=12	=12	=12	=12	=12	=12	=12	=12	=12	=12	=12
!LO:TX:t=P:problem=mixed beam	!	!	!	!	!	!	!	!	!	!	!	!	!
8d\L	.	.	.	8d\L	-fre-	8D/	.	1ryy	1ryy	1ryy	1ryy	1ryy	.
8D/J	.	.	.	16c#\L	.	8D/	-git	.	.	.	.	.	.
.	.	.	.	16B\JJ	.	.	.	.	.	.	.	.	.
8r	.	.	.	16A\LL	.	8r	.	.	.	.	.	.	.
.	.	.	.	16G\	.	.	.	.	.	.	.	.	.
8A\	.	.	.	16F#\	.	8A\	con-	.	.	.	.	.	.
.	.	.	.	16E\JJ	.	.	.	.	.	.	.	.	.
4D/	.	.	.	8D/	.	8d\L	-fre-	.	.	.	.	.	.
.	.	.	.	8D/	-git	8c#\	.	.	.	.	.	.	.
4r	.	.	.	8r	.	8B\	.	.	.	.	.	.	.
.	.	.	.	8A\	con-	8A\J	.	.	.	.	.	.	.
=13	=13	=13	=13	=13	=13	=13	=13	=13	=13	=13	=13	=13	=13
4D/	6	.	.	8d\L	-fre-	8B\L	.	1ryy	1ryy	1ryy	1ryy	1ryy	.
.	_	.	.	8c#\	.	8A\	.	.	.	.	.	.	.
8r	.	.	.	8B\	.	8G#X\	.	.	.	.	.	.	.
8D/	_	.	.	8A\J	.	8F#\J	.	.	.	.	.	.	.
4E\	#	.	.	8B\L	.	8E\L	.	.	.	.	.	.	.
.	.	.	.	8A\	.	16F#\L	.	.	.	.	.	.	.
.	.	.	.	.	.	16G#\JJ	.	.	.	.	.	.	.
4r	.	.	.	8G#X\	.	16A\LL	.	.	.	.	.	.	.
.	.	.	.	.	.	16B\	.	.	.	.	.	.	.
.	.	.	.	8F#\J	.	16c#\	.	.	.	.	.	.	.
*	*	*	*	*	*	*custos:e	*	*	*	*	*	*	*
!	!	!	!	!	!	!LO:TX:b:i:t=Volti Sigl.	!	!	!	!	!	!	!
.	.	.	.	.	.	16d\JJ	.	.	.	.	.	.	.
!	!	!	!	!	!	!LO:PB:g=original	!	!	!	!	!	!	!
=14	=14	=14	=14	=14	=14	=14	=14	=14	=14	=14	=14	=14	=14
4E\	_	.	.	8E\L	.	8e\	.	1ryy	1ryy	1ryy	1ryy	1ryy	.
.	.	.	.	16F#\L	.	8E\	-git	.	.	.	.	.	.
.	x	.	.	16G#X\JJ	.	.	.	.	.	.	.	.	.
8r	.	.	.	16A\LL	.	8r	.	.	.	.	.	.	.
.	.	.	.	16B\	.	.	.	.	.	.	.	.	.
8E\	.	.	.	16c#\	.	8E\	in	.	.	.	.	.	.
.	.	.	.	16d\JJ	.	.	.	.	.	.	.	.	.
4E\	.	.	.	8e\	.	8F#\	.	.	.	.	.	.	.
.	.	.	.	8E\	-git	8G#X\	die	.	.	.	.	.	.
4r	.	.	.	8r	.	8A\	i-	.	.	.	.	.	.
.	.	.	.	8E\	in	8B\	-rae	.	.	.	.	.	.
!LO:LB:g=original	!	!	!	!	!	!	!	!	!	!	!	!	!
=15	=15	=15	=15	=15	=15	=15	=15	=15	=15	=15	=15	=15	=15
2r	.	0r	0r	8A\	.	8c#\	su-	1ryy	1ryy	1ryy	1ryy	1ryy	1r
.	.	.	.	8G#X\	die	8B\	-a	.	.	.	.	.	.
.	.	.	.	8A\	i-	8c#\	i-	.	.	.	.	.	.
.	.	.	.	8B\	-rae	8d\	-rae	.	.	.	.	.	.
4C#/	6	.	.	8c#\L	su-	8e\L	su-	.	.	.	.	.	.
.	.	.	.	8d\J	-a	8G#X\J	.	.	.	.	.	.	.
4D/	.	.	.	8e\L	.	8A\L	-a	.	.	.	.	.	.
.	.	.	.	8A\J	.	8D\J	.	.	.	.	.	.	.
!	!	!	!	!LO:LB:g=original	!	!	!	!	!	!	!	!	!
=16	=16	=16	=16	=16	=16	=16	=16	=16	=16	=16	=16	=16	=16
4E\	#	.	.	(4E\	Re-	(4E\	Re-	1ryy	1ryy	1ryy	1ryy	1ryy	2r
4EE/	.	.	.	4G#X\)	.	4BT\)	.	.	.	.	.	.	.
4AA/	.	.	.	4A\	-ges	4A\	-ges	.	.	.	.	.	4aa\
4G#X\	6	.	.	4r	.	4r	.	.	.	.	.	.	4ee\
=17	=17	=17	=17	=17	=17	=17	=17	=17	=17	=17	=17	=17	=17
!	!	!	!	!	!	!LO:TX:a:t=3.	!	!	!	!	!	!	!
4A\	.	1r	1r	00r	.	0r	.	1ryy	1ryy	1ryy	1ryy	1ryy	16a/LL
.	.	.	.	.	.	.	.	.	.	.	.	.	16g#X/J
.	.	.	.	.	.	.	.	.	.	.	.	.	8.a/J
8r	.	.	.	.	.	.	.	.	.	.	.	.	.
.	.	.	.	.	.	.	.	.	.	.	.	.	16ee\LL
8A\	.	.	.	.	.	.	.	.	.	.	.	.	16cc#\
.	.	.	.	.	.	.	.	.	.	.	.	.	16a\JJ
8d\L	.	.	.	.	.	.	.	.	.	.	.	.	16ff#\LL
.	.	.	.	.	.	.	.	.	.	.	.	.	16dd\
8c#\	.	.	.	.	.	.	.	.	.	.	.	.	16ee\
.	.	.	.	.	.	.	.	.	.	.	.	.	16cc#\JJ
8B\	.	.	.	.	.	.	.	.	.	.	.	.	16dd\LL
.	.	.	.	.	.	.	.	.	.	.	.	.	16b\
8A\J	.	.	.	.	.	.	.	.	.	.	.	.	16cc#\
.	.	.	.	.	.	.	.	.	.	.	.	.	16a\JJ
=18	=18	=18	=18	=18	=18	=18	=18	=18	=18	=18	=18	=18	=18
!LO:TX:t=P:problem=mixed beam	!	!	!	!	!	!.	!	!	!	!	!	!	!
8G#X\L	6	2r	2r	.	.	.	.	1ryy	1ryy	1ryy	1ryy	1ryy	16gg#X\LL
.	.	.	.	.	.	.	.	.	.	.	.	.	16ee\
8A\	.	.	.	.	.	.	.	.	.	.	.	.	16aa\
.	.	.	.	.	.	.	.	.	.	.	.	.	16cc#\JJ
8E\	#	.	.	.	.	.	.	.	.	.	.	.	8b\L
8EE/J	.	.	.	.	.	.	.	.	.	.	.	.	8gg#\J
4AA/	.	16r	16r	.	.	.	.	.	.	.	.	.	4aa\
.	.	16cc#\LL	16cc#\LL	.	.	.	.	.	.	.	.	.	.
.	.	16ee\	16ee\	.	.	.	.	.	.	.	.	.	.
.	.	16cc#\JJ	16cc#\JJ	.	.	.	.	.	.	.	.	.	.
4AA/	.	16a\LL	16a/LL	.	.	.	.	.	.	.	.	.	4r
.	.	16a\	16a/	.	.	.	.	.	.	.	.	.	.
.	.	16cc#\	16cc#/	.	.	.	.	.	.	.	.	.	.
.	.	16a\JJ	16a/JJ	.	.	.	.	.	.	.	.	.	.
=19	=19	=19	=19	=19	=19	=19	=19	=19	=19	=19	=19	=19	=19
4AA/	.	16e/LL	16e/LL	.	.	1r	.	1ryy	1ryy	1ryy	1ryy	1ryy	00r
.	.	16e/	16e/	.	.	.	.	.	.	.	.	.	.
.	.	16a/	16a/	.	.	.	.	.	.	.	.	.	.
.	.	16e/JJ	16e/JJ	.	.	.	.	.	.	.	.	.	.
4AA/	.	16c#/LL	16c#/LL	.	.	.	.	.	.	.	.	.	.
.	.	16c#/	16c#/	.	.	.	.	.	.	.	.	.	.
.	.	16e/	16e/	.	.	.	.	.	.	.	.	.	.
.	.	16c#/JJ	16c#/JJ	.	.	.	.	.	.	.	.	.	.
!LO:TX:t=P:problem=mixed beam	!	!LO:TX:t=P:problem=mixed beam	!LO:TX:t=P:problem=mixed beam	!	!	!	!	!	!	!	!	!	!
8AA/L	.	8A/L	8A/L	.	.	.	.	.	.	.	.	.	.
8e|\J	.	8ee\J	8ee\J	.	.	.	.	.	.	.	.	.	.
8c#|\L	.	8cc#\L	8cc#\L	.	.	.	.	.	.	.	.	.	.
16B|\L	.	16b\L	16b\L	.	.	.	.	.	.	.	.	.	.
16A|\JJ	.	16a\JJ	16a\JJ	.	.	.	.	.	.	.	.	.	.
=20	=20	=20	=20	=20	=20	=20	=20	=20	=20	=20	=20	=20	=20
4E\	4	4ee\	4ff#\	.	.	2r	.	1ryy	1ryy	1ryy	1ryy	1ryy	.
4EE/	#	4e/	4e/	.	.	.	.	.	.	.	.	.	.
!LO:TX:t=P:problem=mixed beam	!	!	!	!	!	!	!	!	!	!	!	!	!
8AA/L	.	4a/	4a/	.	.	8.A\	Do-	.	.	.	.	.	.
8A\	.	.	.	.	.	.	.	.	.	.	.	.	.
.	.	.	.	.	.	16A\	-mi-	.	.	.	.	.	.
8A\	.	4r	4r	.	.	8A\	-nus	.	.	.	.	.	.
8A\J	.	.	.	.	.	8B\	à	.	.	.	.	.	.
=21	=21	=21	=21	=21	=21	=21	=21	=21	=21	=21	=21	=21	=21
!	!	!LO:TX:a:t=1	!LO:TX:a:t=1	!	!	!	!	!	!	!	!	!	!
8A\L	.	1r	1r	8.A\	Do-	4c#\	dex-	1ryy	1ryy	1ryy	1ryy	1ryy	.
8A\	.	.	.	.	.	.	.	.	.	.	.	.	.
.	.	.	.	16A\	-mi-	.	.	.	.	.	.	.	.
8A\	.	.	.	8A\	-nus	8c#\	-tris	.	.	.	.	.	.
8A\J	.	.	.	8B\	à	8d\	à	.	.	.	.	.	.
8C#/L	6	.	.	8c#\	dex-	8e\	dex-	.	.	.	.	.	.
8C#/	_	.	.	8A\	-tris	8A\	-tris	.	.	.	.	.	.
*	*	*	*	*	*	*custos:F#	*	*	*	*	*	*	*
8C#/	-5	.	.	8B\L	tu-	4G\	tu-	.	.	.	.	.	.
8C#/J	_	.	.	8c#\J	.	.	.	.	.	.	.	.	.
!	!	!	!	!	!	!LO:LB:g=original	!	!	!	!	!	!	!
=22	=22	=22	=22	=22	=22	=22	=22	=22	=22	=22	=22	=22	=22
8D/L	x	4r	8r	4d\	-is	8F#\	-is	1ryy	1ryy	1ryy	1ryy	1ryy	.
8D/	.	.	8ff#/ 8a/ 8d/	.	.	8A\	con-	.	.	.	.	.	.
8D/	.	8r	4ff#/ 4a/ 4d/	8r	.	8d\	-fre-	.	.	.	.	.	.
8D/J	.	8ff#/ 8a/ 8d/	.	8A\	con-	8A\	-git	.	.	.	.	.	.
8D/L	.	4ff#/ 4a/ 4d/	8r	8d\	-fre-	8r	.	.	.	.	.	.	.
*	*	*	*	*	*	*	*ij	*	*	*	*	*	*
8D/	.	.	8ff#/ 8a/ 8d/	8A\	-git	8A\	con-	.	.	.	.	.	.
!	!	!LO:TX:t=P:problem=brak czwartej ćwierci w takcie	!	!	!	!	!	!	!	!	!	!	!
8D/	.	4ryy	4ff#/ 4a/ 4d/	8r	.	8d\	-fre-	.	.	.	.	.	.
*	*	*	*	*	*ij	*	*	*	*	*	*	*	*
8D/J	.	.	.	8A\	con-	8A\	-git	.	.	.	.	.	.
*	*	*	*	*	*	*	*Xij	*	*	*	*	*	*
!LO:LB:g=original	!	!	!LO:LB:g=original	!	!	!	!	!	!	!	!	!	!
=23	=23	=23	=23	=23	=23	=23	=23	=23	=23	=23	=23	=23	=23
8D/L	.	4ff#/ 4a/ 4d/	8r	8d\	-fre-	8r	.	1ryy	1ryy	1ryy	1ryy	1ryy	00r
8D/	.	.	8ff#/ 8a/ 8d/	8A\	-git	8A\	con-	.	.	.	.	.	.
*	*	*	*	*	*Xij	*	*	*	*	*	*	*	*
8D/	.	4r	4ff#/ 4a/ 4d/	8r	.	8F#\	-fre-	.	.	.	.	.	.
8D/J	.	.	.	8A\	in	8D/	-git	.	.	.	.	.	.
8D/L	.	2r	2r	8F#\	.	8r	.	.	.	.	.	.	.
8D/	.	.	.	8D\	die	8A\	in	.	.	.	.	.	.
8D/	.	.	.	4r	.	8B\	.	.	.	.	.	.	.
8D/J	.	.	.	.	.	8c#\	die	.	.	.	.	.	.
!	!	!LO:LB:g=original	!	!LO:LB:g=original	!	!	!	!	!	!	!	!	!
=24	=24	=24	=24	=24	=24	=24	=24	=24	=24	=24	=24	=24	=24
!LO:TX:t=P:problem=mixed beam	!	!	!	!	!	!	!	!	!	!	!	!	!
8D\L	.	00r	00r	2r	.	8d\L	i-	1ryy	1ryy	1ryy	1ryy	1ryy	.
8DD/	.	.	.	.	.	16c#\L	-rae	.	.	.	.	.	.
.	.	.	.	.	.	16B\JJ	.	.	.	.	.	.	.
8DD/	.	.	.	.	.	16A\LL	.	.	.	.	.	.	.
.	.	.	.	.	.	16G\	.	.	.	.	.	.	.
8DD/J	.	.	.	.	.	16F#\	.	.	.	.	.	.	.
.	.	.	.	.	.	16E\JJ	.	.	.	.	.	.	.
!LO:TX:t=P:problem=mixed beam	!	!	!	!	!	!	!	!	!	!	!	!	!
8DD/L	.	.	.	8r	.	8D,/	.	.	.	.	.	.	.
8D\	.	.	.	8D\	in	4d\	su-	.	.	.	.	.	.
8D\	.	.	.	8F#\	.	.	.	.	.	.	.	.	.
8D\J	.	.	.	8G#X\	die	8d\	-a	.	.	.	.	.	.
=25	=25	=25	=25	=25	=25	=25	=25	=25	=25	=25	=25	=25	=25
8A\L	4	.	.	8A\L	i-	8d\	Re-	1ryy	1ryy	1ryy	1ryy	1ryy	.
8A\	3	.	.	16G#X\L	.	8c#\	-ges	.	.	.	.	.	.
.	.	.	.	16F#\JJ	.	.	.	.	.	.	.	.	.
8A\	.	.	.	16E\LL	.	4r	.	.	.	.	.	.	.
.	.	.	.	16D\	.	.	.	.	.	.	.	.	.
8A\J	.	.	.	16C#\	.	.	.	.	.	.	.	.	.
.	.	.	.	16BB\JJ	.	.	.	.	.	.	.	.	.
8C#/L	6 5	.	.	8AA/	-rae	8r	.	.	.	.	.	.	.
8C#/	.	.	.	4Gn\	su-	8A\	in	.	.	.	.	.	.
8C#/	.	.	.	.	.	8B\	.	.	.	.	.	.	.
8C#/J	.	.	.	8G\	-a	8c#\	die	.	.	.	.	.	.
=26	=26	=26	=26	=26	=26	=26	=26	=26	=26	=26	=26	=26	=26
8D/L	.	.	.	8G\	Re-	8d\L	i-	1ryy	1ryy	1ryy	1ryy	1ryy	.
8D/	.	.	.	8F#\	-ges	16c#\L	-rae	.	.	.	.	.	.
.	.	.	.	.	.	16B\JJ	.	.	.	.	.	.	.
8D/	.	.	.	4r	.	16A\LL	.	.	.	.	.	.	.
.	.	.	.	.	.	16G\	.	.	.	.	.	.	.
8D/J	.	.	.	.	.	16F#\	.	.	.	.	.	.	.
.	.	.	.	.	.	16E\JJ	.	.	.	.	.	.	.
!	!	!	!	!	!	!LO:LB:g=original	!	!	!	!	!	!	!
8D/L	.	.	.	8r	.	8D,/	.	.	.	.	.	.	.
8D/	.	.	.	8D\	in	4d\	su-	.	.	.	.	.	.
8D/	.	.	.	8E\	.	.	.	.	.	.	.	.	.
8D/J	.	.	.	8F#\	die	8d\	-a	.	.	.	.	.	.
=27	=27	=27	=27	=27	=27	=27	=27	=27	=27	=27	=27	=27	=27
8G\L	.	.	.	8G\	i-	8B\	i-	1ryy	1ryy	1ryy	1ryy	1ryy	00r
8G\	.	.	.	4B\	-rae	(4G\	-rae	.	.	.	.	.	.
8G\	.	.	.	.	.	.	.	.	.	.	.	.	.
8G\J	.	.	.	4G\	su-	8B\)	.	.	.	.	.	.	.
!	!	!	!	!	!	!LO:TX:t=P:problem=mixed beam	!	!	!	!	!	!	!
8G\L	.	.	.	.	.	8GG/L	su-	.	.	.	.	.	.
8G\	.	.	.	4F#\	.	8B\	.	.	.	.	.	.	.
8G\	.	.	.	.	.	8c#\	.	.	.	.	.	.	.
8G\J	.	.	.	8E\	-a	8d\J	-a	.	.	.	.	.	.
!	!	!	!	!LO:LB:g=original	!	!	!	!	!	!	!	!	!
=28	=28	=28	=28	=28	=28	=28	=28	=28	=28	=28	=28	=28	=28
8A\L	.	0r	0r	8A\	Re-	8c#\	Re-	1ryy	1ryy	1ryy	1ryy	1ryy	.
8A\	.	.	.	4c#\	.	4A\	.	.	.	.	.	.	.
8A\	.	.	.	.	.	.	.	.	.	.	.	.	.
8A\J	.	.	.	4A\	.	8c#\	.	.	.	.	.	.	.
!	!	!	!	!	!	!LO:TX:t=P:problem=mixed beam	!	!	!	!	!	!	!
8A\L	.	.	.	.	.	8AA/L	.	.	.	.	.	.	.
8A\	.	.	.	4G\	.	8c#\	.	.	.	.	.	.	.
8A\	.	.	.	.	.	8d\	.	.	.	.	.	.	.
8A\J	.	.	.	8F#\	.	8e\J	.	.	.	.	.	.	.
=29	=29	=29	=29	=29	=29	=29	=29	=29	=29	=29	=29	=29	=29
4B\	6	.	.	4B\	.	8d\L	.	1ryy	1ryy	1ryy	1ryy	1ryy	.
.	.	.	.	.	.	16c#\L	.	.	.	.	.	.	.
.	.	.	.	.	.	16B\JJ	.	.	.	.	.	.	.
4c#\	.	.	.	4c#\	.	8A\L	.	.	.	.	.	.	.
.	.	.	.	.	.	8G\J	.	.	.	.	.	.	.
8d\L	.	.	.	8d\L	.	4F#\	.	.	.	.	.	.	.
8D\	.	.	.	16c#\L	.	.	.	.	.	.	.	.	.
.	.	.	.	16B\JJ	.	.	.	.	.	.	.	.	.
8D\	.	.	.	8A\L	.	4c#\	.	.	.	.	.	.	.
8D\J	.	.	.	8G\J	.	.	.	.	.	.	.	.	.
=30	=30	=30	=30	=30	=30	=30	=30	=30	=30	=30	=30	=30	=30
8D\L	.	1r	1r	4F#\	.	8d\L	.	1ryy	1ryy	1ryy	1ryy	1ryy	.
8D\	.	.	.	.	.	16c#\L	.	.	.	.	.	.	.
.	.	.	.	.	.	16B\JJ	.	.	.	.	.	.	.
8D\	.	.	.	4c#\	.	8A\L	.	.	.	.	.	.	.
8D\J	.	.	.	.	.	8G\J	.	.	.	.	.	.	.
8D\L	.	.	.	8d\L	.	8F#\L	.	.	.	.	.	.	.
8E\	.	.	.	8G\	.	8B\	.	.	.	.	.	.	.
8F#\	.	.	.	8F#\	.	8c#\	.	.	.	.	.	.	.
8G\J	.	.	.	8G\J	.	8d\J	.	.	.	.	.	.	.
!LO:LB:g=original	!	!	!	!	!	!	!	!	!	!	!	!	!LO:LB:g=original
=31	=31	=31	=31	=31	=31	=31	=31	=31	=31	=31	=31	=31	=31
4A\	.	2r	2r	(4A\	.	(4A\	-ges	1ryy	1ryy	1ryy	1ryy	1ryy	2r
4AA/	.	.	.	4AA/)	.	4c#\)	.	.	.	.	.	.	.
4D/	.	16dd\LL	16ff#\LL	4D/	-ges	4d\	.	.	.	.	.	.	2aaT\
.	.	16ee\JJ	16gg\JJ	.	.	.	.	.	.	.	.	.	.
.	.	4ff#\	4aa\	.	.	.	.	.	.	.	.	.	.
8r	.	.	.	4r	.	4r	.	.	.	.	.	.	.
8D/	.	8dd\	8ff#\	.	.	.	.	.	.	.	.	.	.
!	!	!	!	!	!	!LO:LB:g=original	!	!	!	!	!	!	!
=32	=32	=32	=32	=32	=32	=32	=32	=32	=32	=32	=32	=32	=32
!	!	!	!	!LO:TX:a:t=1	!	!	!	!	!	!	!	!	!
4AA/	.	16cc#\LL	16ee\LL	1r	.	1r	.	1ryy	1ryy	1ryy	1ryy	1ryy	2aaT\
.	.	16dd\JJ	16ff#\JJ	.	.	.	.	.	.	.	.	.	.
.	.	4ee\	4gg\	.	.	.	.	.	.	.	.	.	.
8r	.	.	.	.	.	.	.	.	.	.	.	.	.
8AA/	.	8cc#\	8ee\	.	.	.	.	.	.	.	.	.	.
4D/	.	16dd\LL	16ff#\LL	.	.	.	.	.	.	.	.	.	2aa\
.	.	16ee\JJ	16gg\JJ	.	.	.	.	.	.	.	.	.	.
.	.	4ff#\	4aa\	.	.	.	.	.	.	.	.	.	.
8r	.	.	.	.	.	.	.	.	.	.	.	.	.
8D/	.	8dd\	8ff#\	.	.	.	.	.	.	.	.	.	.
=33	=33	=33	=33	=33	=33	=33	=33	=33	=33	=33	=33	=33	=33
!	!	!	!	!	!	!LO:TX:a:t=1	!	!	!	!	!	!	!
4AA/	.	16cc#\LL	16ee\LL	2r	.	2r	.	1ryy	1ryy	1ryy	1ryy	1ryy	2aa\
.	.	16dd\JJ	16ff#\JJ	.	.	.	.	.	.	.	.	.	.
.	.	4ee\	4gg\	.	.	.	.	.	.	.	.	.	.
8r	.	.	.	.	.	.	.	.	.	.	.	.	.
8AA/	.	8cc#\	8ee\	.	.	.	.	.	.	.	.	.	.
!	!	!	!	!LO:LB:g=original	!	!	!	!	!	!	!	!	!
4D/	.	4ff#/ 4a/ 4d/	4ff#/ 4a/ 4d/	4r	.	8r	.	.	.	.	.	.	4aa\
.	.	.	.	.	.	8A\	con-	.	.	.	.	.	.
4D/	.	4ff#/ 4a/ 4d/	4ff#/ 4a/ 4d/	8r	.	8F#\	-fre-	.	.	.	.	.	4r
.	.	.	.	8A\	con-	8D\	-git	.	.	.	.	.	.
=34	=34	=34	=34	=34	=34	=34	=34	=34	=34	=34	=34	=34	=34
4D/	.	4ff#/ 4a/ 4d/	4ff#/ 4a/ 4d/	8F#\	-fre-	8r	.	1ryy	1ryy	1ryy	1ryy	1ryy	0r
*	*	*	*	*	*	*	*ij	*	*	*	*	*	*
.	.	.	.	8D/	-git	8A\	con-	.	.	.	.	.	.
4D/	.	4ff#/ 4a/ 4d/	4ff#/ 4a/ 4d/	8r	.	8F#\	-fre-	.	.	.	.	.	.
.	.	.	.	8A\	con-	8D/	-git	.	.	.	.	.	.
*	*	*	*	*	*	*	*Xij	*	*	*	*	*	*
4D/	.	4ff#/ 4a/ 4d/	4ff#/ 4a/ 4d/	8F#\	-fre-	8r	.	.	.	.	.	.	.
.	.	.	.	8D/	-git	8A\	con-	.	.	.	.	.	.
4D/	.	4r	4r	8r	.	8B\	-fre-	.	.	.	.	.	.
.	.	.	.	8A\	in	16c#\	-git	.	.	.	.	.	.
.	.	.	.	.	.	16c#\	in	.	.	.	.	.	.
=35	=35	=35	=35	=35	=35	=35	=35	=35	=35	=35	=35	=35	=35
4D/	.	00r	00r	8D\	.	8d\	.	1ryy	1ryy	1ryy	1ryy	1ryy	.
.	.	.	.	8E\	die	8F#\	die	.	.	.	.	.	.
4r	.	.	.	8F#\	i-	8G\	i-	.	.	.	.	.	.
.	.	.	.	8G\	-rae	8A\	-rae	.	.	.	.	.	.
8D\L	.	.	.	8A\L	.	8B\L	su-	.	.	.	.	.	.
8A\	.	.	.	8F#\J	su-	8c#\J	.	.	.	.	.	.	.
8B\	.	.	.	8B\L	-a	4d\	-a	.	.	.	.	.	.
8G\J	.	.	.	8G\J	.	.	.	.	.	.	.	.	.
=36	=36	=36	=36	=36	=36	=36	=36	=36	=36	=36	=36	=36	=36
4A\	.	.	.	(4A\	Re-	(4d\	Re-	1ryy	1ryy	1ryy	1ryy	1ryy	1r
4AA/	.	.	.	4AA/)	.	4c#\)	.	.	.	.	.	.	.
4D/	.	.	.	4D/	-ges	4d\	-ges	.	.	.	.	.	.
16A\LL	.	.	.	4r	.	4r	.	.	.	.	.	.	.
16G\	.	.	.	.	.	.	.	.	.	.	.	.	.
16F#\	.	.	.	.	.	.	.	.	.	.	.	.	.
16E\JJ	.	.	.	.	.	.	.	.	.	.	.	.	.
!	!	!	!	!LO:LB:g=original	!	!	!	!	!	!	!	!	!
=37	=37	=37	=37	=37	=37	=37	=37	=37	=37	=37	=37	=37	=37
!LO:TX:a:i:t=Hob&colon;	!	!	!	!	!	!LO:TX:a:t=10.	!	!	!	!	!	!	!
4D/	.	.	.	00r	.	00r	.	1ryy	1ryy	1ryy	1ryy	1ryy	4dd\
4C#/	6	.	.	.	.	.	.	.	.	.	.	.	4a/
4D/	.	.	.	.	.	.	.	.	.	.	.	.	8dd\L
.	.	.	.	.	.	.	.	.	.	.	.	.	16ff#\L
.	.	.	.	.	.	.	.	.	.	.	.	.	16gg\JJ
!	!	!	!	!	!	!	!	!	!	!	!	!	!LO:TX:t=P:problem=mixed beam
8r	.	.	.	.	.	.	.	.	.	.	.	.	8aa\L
8AA/	.	.	.	.	.	.	.	.	.	.	.	.	8a/J
=38	=38	=38	=38	=38	=38	=38	=38	=38	=38	=38	=38	=38	=38
8D\L	.	.	.	.	.	.	.	1ryy	1ryy	1ryy	1ryy	1ryy	16dd\LL
.	.	.	.	.	.	.	.	.	.	.	.	.	16cc#\J
8E\	.	.	.	.	.	.	.	.	.	.	.	.	8.dd\J
8F#\	.	.	.	.	.	.	.	.	.	.	.	.	.
.	.	.	.	.	.	.	.	.	.	.	.	.	16aa\LL
8D\J	.	.	.	.	.	.	.	.	.	.	.	.	16ff#\
.	.	.	.	.	.	.	.	.	.	.	.	.	16dd\JJ
8G\L	.	.	.	.	.	.	.	.	.	.	.	.	16bb\LL
.	.	.	.	.	.	.	.	.	.	.	.	.	16gg\
8F#\	.	.	.	.	.	.	.	.	.	.	.	.	16aa\
.	.	.	.	.	.	.	.	.	.	.	.	.	16ff#\JJ
8E\	.	.	.	.	.	.	.	.	.	.	.	.	16gg\LL
.	.	.	.	.	.	.	.	.	.	.	.	.	16ee\
8D\J	.	.	.	.	.	.	.	.	.	.	.	.	16ff#\
.	.	.	.	.	.	.	.	.	.	.	.	.	16dd\JJ
!	!	!	!	!	!	!	!	!	!	!	!	!	!LO:LB:g=original
=39	=39	=39	=39	=39	=39	=39	=39	=39	=39	=39	=39	=39	=39
!	!	!	!LO:TX:a:t=1	!	!	!	!	!	!	!	!	!	!LO:TX:t=P:problem=mixed beam
8AA/L	.	1r	1r	.	.	.	.	1ryy	1ryy	1ryy	1ryy	1ryy	8ee\L
8BB/	.	.	.	.	.	.	.	.	.	.	.	.	8a/J
8C#/	.	.	.	.	.	.	.	.	.	.	.	.	16r
.	.	.	.	.	.	.	.	.	.	.	.	.	16ee\LL
8AA/J	.	.	.	.	.	.	.	.	.	.	.	.	16dd\
.	.	.	.	.	.	.	.	.	.	.	.	.	16ee\JJ
!LO:LB:g=original	!	!	!	!	!	!	!	!	!	!	!	!	!
4D\	.	.	.	.	.	.	.	.	.	.	.	.	16ff#\LL
.	.	.	.	.	.	.	.	.	.	.	.	.	16gg\
.	.	.	.	.	.	.	.	.	.	.	.	.	16ee\
.	.	.	.	.	.	.	.	.	.	.	.	.	16ff#\JJ
4E\	.	.	.	.	.	.	.	.	.	.	.	.	16gg\LL
.	.	.	.	.	.	.	.	.	.	.	.	.	16aa\
.	.	.	.	.	.	.	.	.	.	.	.	.	16ff#\
.	.	.	.	.	.	.	.	.	.	.	.	.	16gg\JJ
=40	=40	=40	=40	=40	=40	=40	=40	=40	=40	=40	=40	=40	=40
8D/L	.	4r	4r	.	.	.	.	1ryy	1ryy	1ryy	1ryy	1ryy	2aaT\
8C#/J	.	.	.	.	.	.	.	.	.	.	.	.	.
8r	.	8r	8r	.	.	.	.	.	.	.	.	.	.
*	*	*	*custos:ff#	*	*	*	*	*	*	*	*	*	*
8AA/	.	8cc#\	8ee\	.	.	.	.	.	.	.	.	.	.
!	!	!	!LO:LB:g=original	!	!	!	!	!	!	!	!	!	!
4D/	.	16dd\LL	16ff#\LL	.	.	.	.	.	.	.	.	.	2aa\
.	.	16ee\JJ	16gg\JJ	.	.	.	.	.	.	.	.	.	.
.	.	4ff#\	4aa\	.	.	.	.	.	.	.	.	.	.
8r	.	.	.	.	.	.	.	.	.	.	.	.	.
8D/	.	8dd\	8ff#\	.	.	.	.	.	.	.	.	.	.
!	!	!LO:LB:g=original	!	!	!	!	!	!	!	!	!	!	!
=41	=41	=41	=41	=41	=41	=41	=41	=41	=41	=41	=41	=41	=41
4AA/	.	16cc#\LL	16ee\LL	00r	.	00r	.	1ryy	1ryy	1ryy	1ryy	1ryy	1aa\
.	.	16dd\JJ	16ff#\JJ	.	.	.	.	.	.	.	.	.	.
.	.	4ee\	4gg\	.	.	.	.	.	.	.	.	.	.
8r	.	.	.	.	.	.	.	.	.	.	.	.	.
8AA/	.	8cc#\	8ee\	.	.	.	.	.	.	.	.	.	.
4D/	.	16dd\LL	16ff#\LL	.	.	.	.	.	.	.	.	.	.
.	.	16ee\JJ	16gg\JJ	.	.	.	.	.	.	.	.	.	.
.	.	4ff#\	4aa\	.	.	.	.	.	.	.	.	.	.
8r	.	.	.	.	.	.	.	.	.	.	.	.	.
8D/	.	8dd\	8ff#\	.	.	.	.	.	.	.	.	.	.
=42	=42	=42	=42	=42	=42	=42	=42	=42	=42	=42	=42	=42	=42
8A\L	.	4cc#\	4ee\	.	.	.	.	1ryy	1ryy	1ryy	1ryy	1ryy	4aa\
8G\	.	.	.	.	.	.	.	.	.	.	.	.	.
8F#\	.	4r	4r	.	.	.	.	.	.	.	.	.	8r
8E\J	.	.	.	.	.	.	.	.	.	.	.	.	8ee\
4D/	.	2r	2r	.	.	.	.	.	.	.	.	.	16ff#\LL
.	.	.	.	.	.	.	.	.	.	.	.	.	16ee\
.	.	.	.	.	.	.	.	.	.	.	.	.	16dd\
.	.	.	.	.	.	.	.	.	.	.	.	.	16ff#\JJ
4C#/	6	.	.	.	.	.	.	.	.	.	.	.	16gg\LL
.	.	.	.	.	.	.	.	.	.	.	.	.	16ff#\
.	.	.	.	.	.	.	.	.	.	.	.	.	16ee\
.	.	.	.	.	.	.	.	.	.	.	.	.	16gg\JJ
=43	=43	=43	=43	=43	=43	=43	=43	=43	=43	=43	=43	=43	=43
!	!	!LO:TX:a:t=1	!LO:TX:a:t=1	!	!	!	!	!	!	!	!	!	!
8D\L	.	1r	1r	.	.	.	.	1ryy	1ryy	1ryy	1ryy	1ryy	8aa\L
8E\	.	.	.	.	.	.	.	.	.	.	.	.	16bb\L
.	.	.	.	.	.	.	.	.	.	.	.	.	16ccc#\JJ
8F#\	.	.	.	.	.	.	.	.	.	.	.	.	8ddd\L
*	*	*	*	*	*	*	*	*	*	*	*	*	*custos:ff#
8G\J	.	.	.	.	.	.	.	.	.	.	.	.	8gg\J
!	!	!	!	!	!	!	!	!	!	!	!	!	!LO:LB:g=original
4A\	.	.	.	.	.	.	.	.	.	.	.	.	8ff#\L
.	.	.	.	.	.	.	.	.	.	.	.	.	16ee\L
.	.	.	.	.	.	.	.	.	.	.	.	.	16dd\JJ
4AA/	.	.	.	.	.	.	.	.	.	.	.	.	4eeT\
=44	=44	=44	=44	=44	=44	=44	=44	=44	=44	=44	=44	=44	=44
4D/	.	16r	16r	.	.	.	.	1ryy	1ryy	1ryy	1ryy	1ryy	4dd\
.	.	16ff#\LL	16ff#\LL	.	.	.	.	.	.	.	.	.	.
.	.	16aa\	16aa\	.	.	.	.	.	.	.	.	.	.
.	.	16ff#\JJ	16ff#\JJ	.	.	.	.	.	.	.	.	.	.
4D/	.	16dd\LL	16dd\LL	.	.	.	.	.	.	.	.	.	4r
.	.	16dd\	16dd\	.	.	.	.	.	.	.	.	.	.
.	.	16ff#\	16ff#\	.	.	.	.	.	.	.	.	.	.
.	.	16dd\JJ	16dd\JJ	.	.	.	.	.	.	.	.	.	.
4D/	.	16a\LL	16a\LL	.	.	.	.	.	.	.	.	.	2r
.	.	16a\	16a\	.	.	.	.	.	.	.	.	.	.
.	.	16dd\	16dd\	.	.	.	.	.	.	.	.	.	.
.	.	16a\JJ	16a\JJ	.	.	.	.	.	.	.	.	.	.
4D/	.	16f#/LL	16f#/LL	.	.	.	.	.	.	.	.	.	.
.	.	16f#/	16f#/	.	.	.	.	.	.	.	.	.	.
.	.	16a/	16a/	.	.	.	.	.	.	.	.	.	.
.	.	16f#/JJ	16f#/JJ	.	.	.	.	.	.	.	.	.	.
=45	=45	=45	=45	=45	=45	=45	=45	=45	=45	=45	=45	=45	=45
16D|\LL	.	16d/LL	16d/LL	0r	.	0r	.	1ryy	1ryy	1ryy	1ryy	1ryy	2r
16D|\	.	16d/	16d/	.	.	.	.	.	.	.	.	.	.
16E|\	.	16e/	16e/	.	.	.	.	.	.	.	.	.	.
16F#|\JJ	.	16f#/JJ	16f#/JJ	.	.	.	.	.	.	.	.	.	.
16G|\LL	.	16g/LL	16g/LL	.	.	.	.	.	.	.	.	.	.
16A|\	.	16a/	16a/	.	.	.	.	.	.	.	.	.	.
16B|\	.	16b/	16b/	.	.	.	.	.	.	.	.	.	.
16c#|\JJ	.	16cc#/JJ	16cc#/JJ	.	.	.	.	.	.	.	.	.	.
16d\LL	.	16dd\LL	16dd\LL	.	.	.	.	.	.	.	.	.	4r
16F#|\	.	16f#\	16f#\	.	.	.	.	.	.	.	.	.	.
16E|\	.	16e\	16e\	.	.	.	.	.	.	.	.	.	.
16D|\JJ	.	16d\JJ	16d\JJ	.	.	.	.	.	.	.	.	.	.
!LO:TX:t=P:problem=mixed beam	!	!	!	!	!	!	!	!	!	!	!	!	!
8A\L	.	8a/L	8a/L	.	.	.	.	.	.	.	.	.	8r
8AA/J	.	8A/J	8A/J	.	.	.	.	.	.	.	.	.	8a/
=46	=46	=46	=46	=46	=46	=46	=46	=46	=46	=46	=46	=46	=46
4D/	.	4d/	4d/	.	.	.	.	1ryy	1ryy	1ryy	1ryy	1ryy	4d/
4r	.	4r	4r	.	.	.	.	.	.	.	.	.	4r
2r	.	2r	2r	.	.	.	.	.	.	.	.	.	2r
==	==	==	==	==	==	==	==	==	==	==	==	==	==
*-	*-	*-	*-	*-	*-	*-	*-	*-	*-	*-	*-	*-	*-
!!!system-decoration: [(s1)],[(s2,s3)],[(s4,s5,s6,s7,s8)],[(s9,s10)],[(s11)]
!!!RDF**kern: | = vertical stroke
!!!ENC: Mateusz Solarz
!!!END: 2020-07-28
!!!ENC: Leszek Kubiak
!!!END: 2022-03-05
